X:279
T:Black Pat's Reel
R:reel
C:Tommy Peoples
S:Shena Tschofen
M:4/4
L:1/8
K:Fmaj
D3E |: F3A d2cA | GcAG FDCD | FEFA dccB | Acfa g2fg |
aff2 gfdc | A2 cA GFDE | FEFA dccA |1 GFFE FCDE :|2 GFFE F3D ||
CFF2 FDCD | FEFG Add2 | c2AF cFAF | GcAG FDCD |
FEFG FDCD | FEFG Acfg | aff2 gfdf | cfag f4 |:
c3B AGFD | CDFG Add2 | c2AF cFAF | GcAG FDCD |
FEFG FDCD | FEFG Acfg | aff2 gfdf | cfag f4 ::
a3f d2cd | fdcA F4| a2fc acfc | dggf g2fg |
a3f d2cd | fdcA cdfg | a2gf dccA |1 GFFE FGAc :|2 GFFE F4 |]
